www/assets/icons/browser_updated.svg

<svg xmlns="http://www.w3.org/2000/svg" width="24" height="24" viewBox="0 0 24 24" fill='currentColor'><path d="M22 13v3c0 1.1-.9 2-2 2h-3l1 1v2H6v-2l1-1H4c-1.1 0-2-.9-2-2V5c0-1.1.9-2 2-2h8v2H4v11h16v-3zm-7 2-5-5h4V3h2v7h4z"/></svg>

<svg width="24" height="24" viewBox="0 0 24 24" xmlns="http://www.w3.org/2000/svg" fill='currentColor'><path d="M22 13V16C22 17.1 21.1 18 20 18H17L18 19V21H6V19L7 18H4C2.9 18 2 17.1 2 16V5C2 3.9 2.9 3 4 3H12V5H4V16H20V13H22ZM15 15L10 10H14V3H16V10H20L15 15Z"/></svg>
